src/smileys-emotion/face-neutral-skeptical/1FAE5.svg

<?xml version="1.0" encoding="UTF-8"?>
<svg id="emoji" xmlns="http://www.w3.org/2000/svg" viewBox="0 0 72 72">
  <g id="grid">
    <path d="m68,4v64H4V4h64m4-4H0v72h72V0Z" fill="#b3b3b3"/>
    <path d="m12.923,10.9583h46.1539c1.0621,0,1.9231.861,1.9231,1.9231h0v46.1538c0,1.0621-.861,1.9231-1.9231,1.9231H12.9231c-1.0621,0-1.9231-.861-1.9231-1.9231h0V12.8813c0-1.062.861-1.923,1.923-1.923h0Z" fill="none" stroke="#00a5ff" stroke-miterlimit="10" stroke-width=".1"/>
    <rect x="16" y="4" width="40" height="64" rx="2.2537" ry="2.2537" fill="none" stroke="#00a5ff" stroke-miterlimit="10" stroke-width=".1"/>
    <rect x="4" y="16" width="64" height="40" rx="2.2537" ry="2.2537" fill="none" stroke="#00a5ff" stroke-miterlimit="10" stroke-width=".1"/>
    <circle cx="36" cy="36" r="29" fill="none" stroke="#00a5ff" stroke-miterlimit="10" stroke-width=".1"/>
  </g>
  <g id="line-supplement">
    <circle cx="35.9773" cy="35.9583" r="23" fill="none" stroke="#000" stroke-dasharray="0 0 0 0 0 0 5.1598 5.1598" stroke-linecap="round" stroke-miterlimit="10" stroke-width="2"/>
  </g>
  <g id="color">
    <circle cx="35.93" cy="36.0066" r="23.4291" fill="#fff"/>
    <circle cx="35.9773" cy="35.9583" r="23" fill="none" stroke="#f4aa41" stroke-dasharray="0 0 0 0 0 0 5.1598 5.1598" stroke-linecap="round" stroke-miterlimit="10" stroke-width="2"/>
  </g>
  <g id="line">
    <path d="m29.9772,32.9583c0,1.6569-1.3431,3-3,3s-3-1.3431-3-3,1.3431-3,3-3c1.6566.0006,2.9994,1.3434,3,3"/>
    <path d="m47.9772,32.9583c0,1.6569-1.3431,3-3,3s-3-1.3431-3-3,1.3431-3,3-3c1.6566.0006,2.9994,1.3434,3,3"/>
    <line x1="29.9772" y1="43.7964" x2="41.9772" y2="43.7964" fill="none" stroke="#000" stroke-linecap="round" stroke-miterlimit="10" stroke-width="2"/>
  </g>
</svg>

<svg id="emoji" viewBox="0 0 72 72" xmlns="http://www.w3.org/2000/svg">
  <g id="grid">
    <path fill="#b3b3b3" d="M68,4V68H4V4H68m4-4H0V72H72V0Z"/>
    <path fill="none" stroke="#00a5ff" stroke-miterlimit="10" stroke-width="0.1" d="M12.923,10.9583H59.0769A1.9231,1.9231,0,0,1,61,12.8814V59.0352a1.9231,1.9231,0,0,1-1.9231,1.9231H12.9231A1.9231,1.9231,0,0,1,11,59.0352V12.8813a1.923,1.923,0,0,1,1.923-1.923Z"/>
    <rect x="16" y="4" rx="2.2537" width="40" height="64" fill="none" stroke="#00a5ff" stroke-miterlimit="10" stroke-width="0.1"/>
    <rect x="16" y="4" rx="2.2537" width="40" height="64" transform="translate(72 0) rotate(90)" fill="none" stroke="#00a5ff" stroke-miterlimit="10" stroke-width="0.1"/>
    <circle cx="36" cy="36" r="29" fill="none" stroke="#00a5ff" stroke-miterlimit="10" stroke-width="0.1"/>
  </g>
  <g id="line-supplement">
    <circle cx="35.9773" cy="35.9583" r="23" fill="none" stroke="#000" stroke-dasharray="5.1598 5.1598" stroke-linecap="round" stroke-miterlimit="10" stroke-width="2"/>
  </g>
  <g id="color">
    <circle cx="35.9773" cy="35.9583" r="23" fill="none" stroke="#f4aa41" stroke-dasharray="5.1598 5.1598" stroke-linecap="round" stroke-miterlimit="10" stroke-width="2"/>
  </g>
  <g id="line">
    <path d="M29.9772,32.9583a3,3,0,1,1-3-3,3.0011,3.0011,0,0,1,3,3"/>
    <path d="M47.9772,32.9583a3,3,0,1,1-3-3,3.0011,3.0011,0,0,1,3,3"/>
    <line x1="29.9772" x2="41.9772" y1="43.7964" y2="43.7964" fill="none" stroke="#000" stroke-linecap="round" stroke-miterlimit="10" stroke-width="2"/>
  </g>
</svg>
